X: 1
T: The Borris
R: reel
M: 4/4
L: 1/8
K: Gmaj
|:dc|Bdgf edcB|AE (3(E^DE) cBAG|FGAB cdef|g2 (3(agf) gfed|
Bdgf edcB|AE (3(E^DE) cBAG|FGAB cdef|g2 (3(agf) g2:|
|:ga|(3(bag) af gedc|BG (3(GFG) DG,B,D|CDEG ceag|(3(fga) ge fdga|
(3(bag) af gedc|BG (3(GFG) DG,B,D|CDEG egag|(3(fga) ef g2:|

composer: Sean Ryan
